assets/img/work/penguin/penguin-logo.svg

<?xml version="1.0" encoding="UTF-8" standalone="no"?>
<svg width="61px" height="88px" viewBox="0 0 61 88" version="1.1" xmlns="http://www.w3.org/2000/svg" xmlns:xlink="http://www.w3.org/1999/xlink">
    <!-- Generator: Sketch 41.2 (35397) - http://www.bohemiancoding.com/sketch -->
    <title>Penguin_logo</title>
    <desc>Created with Sketch.</desc>
    <defs></defs>
    <g id="Featured-Case-studies" stroke="none" stroke-width="1" fill="none" fill-rule="evenodd">
        <g id="Work/PenguinLS" transform="translate(-120.000000, -625.000000)">
            <g id="Group">
                <g id="Penguin_logo" transform="translate(150.500000, 669.000000) rotate(-360.000000) translate(-150.500000, -669.000000) translate(120.000000, 625.000000)">
                    <g id="Group" transform="translate(-0.000000, 0.000000)">
                        <path d="M30.1432766,0.00449299316 C1.24322765,0.0662716492 0.0239710853,37.2285669 0.0301454558,44.0594142 C0.073366049,64.7672453 8.25331731,87.6556757 30.3041734,87.6051296 C52.3557559,87.5583275 60.4409124,64.4995378 60.4038662,43.7917067 C60.3915174,36.9713431 59.0498631,-0.0490485087 30.1432766,0.00449299316" id="Shape" fill="#000000"></path>
                        <path d="M30.3041734,86.3643146 C9.35453444,86.4088701 3.70498547,63.4451821 3.66830245,43.7726115 C3.65595371,37.2836061 2.59759397,1.09142292 30.0568354,1.03001868 C57.510992,0.975353933 56.7609876,37.3641056 56.767162,43.8531109 C56.8042082,63.5181932 51.2556284,86.3193847 30.3041734,86.3643146" id="Shape" fill="#FF6600"></path>
                        <path d="M44.1140609,33.8595709 C41.6523031,29.8222421 38.2048252,25.0533043 37.8151135,20.1424628 C37.574313,17.0587718 37.753733,13.6092763 35.7361666,11.0688631 C35.1550494,10.3275192 34.3269574,9.6412145 33.5032237,9.19565934 C32.6293687,8.73250663 31.4983693,8.42810634 30.5082908,8.42810634 C29.5686969,8.42810634 28.6341878,8.57937045 27.7370881,8.85531511 C26.6787284,9.18704777 25.6269062,9.57756376 24.5318634,9.7389371 C23.2577639,9.91715916 22.2306392,9.85425726 20.9870484,9.56895219 C20.2504823,9.3993417 20.0467281,9.33756304 19.3036244,9.16945022 C18.9019272,9.08108802 17.7818237,8.74898094 17.4349694,9.1061739 C16.5992502,9.97070066 18.3752897,11.0138239 18.9019272,11.406212 C20.0587136,12.2711132 20.5468521,12.5560438 21.6484324,13.5456256 C23.1400877,14.8841631 24.327746,16.4683176 24.7853758,18.4647042 C24.9154008,19.0472957 24.9586214,19.6250197 24.9647958,20.212853 C25.0759344,28.8236744 11.1421963,37.2675062 11.3350546,52.5099855 C11.4033358,57.894089 14.1930617,58.786697 14.1560155,55.7891217 C14.1127949,52.242278 15.3374994,48.4082572 16.5996134,45.120135 C16.897436,44.361568 17.8319451,44.1301789 17.6205637,45.4488724 C17.2867845,47.5351188 16.4637772,51.1463621 16.5378697,57.0381738 C16.556756,58.4549643 16.6366596,59.8908501 16.8356922,61.2881709 C16.9965891,62.4316377 17.2312152,63.5530139 17.55882,64.6511763 C17.8254075,65.5684957 18.1718987,66.4693409 18.6106422,67.3166445 C18.9578597,67.983854 19.359557,68.6248543 19.8291723,69.2051993 C20.2998773,69.7758094 20.8007277,70.1951555 21.3640482,70.6489478 C21.691653,70.9162809 22.0573937,71.156656 22.2117529,71.5771253 C22.4467422,72.2016513 21.6789411,72.4498892 21.277607,72.6370972 C20.8312363,72.8434005 20.4418878,73.0725432 20.0216674,73.278472 C19.4147631,73.5821235 18.8216603,73.9026236 18.2332792,74.2407214 C17.8748025,74.4548874 17.4716524,74.5803168 17.1255245,74.8210663 C16.7793965,75.0610671 16.6054245,75.436232 17.1382364,75.5257174 C17.3852112,75.5702729 17.6514355,75.4976362 17.8991368,75.4893991 C18.3197203,75.4725503 18.7646382,75.4088996 19.1735995,75.5702729 C19.7176705,75.7911784 19.6867986,76.335205 19.7114961,76.8616341 C19.7358304,77.4225094 20.1204573,77.6112151 20.6027846,77.468937 C21.1722795,77.3068148 21.5681656,76.8616341 22.0079987,76.4789808 C22.3228916,76.2034106 22.6693827,75.9184799 23.0463825,75.7211626 C23.7952973,75.3366373 24.6927603,75.4639388 25.5034188,75.5062478 C25.9483366,75.534329 26.5861128,75.7297742 26.9507638,75.347121 C27.3215893,74.9712072 27.0557281,74.3043721 26.8951945,73.8839028 C26.7342977,73.4851497 26.5428922,73.0916384 26.3511235,72.6985015 C26.2643191,72.5195306 26.1397421,72.3693897 26.0594753,72.1821817 C25.7442192,71.4326007 28.2804327,70.8631138 28.6523477,70.7653912 C29.8774154,70.4265446 31.1642269,70.1243908 32.439416,70.0071986 C33.6386966,69.8993667 34.9694551,69.8993667 36.106992,70.3917239 C36.5889561,70.5957807 36.9928326,70.9522248 37.3204374,71.370822 C37.4998574,71.6111971 37.9200778,72.3162226 37.5427148,72.6007789 C36.9601448,73.0377225 36.3623204,73.4203757 35.7855616,73.8839028 C35.4267217,74.1707056 35.0805938,74.474357 34.7758704,74.8308012 C34.5488715,75.0985087 34.4871278,75.5620358 34.950932,75.534329 C35.5690954,75.5062478 36.1807213,75.4725503 36.7948895,75.4639388 C37.233633,75.4639388 37.7036116,75.525343 38.074437,75.7825669 C38.6820677,76.2116477 38.8179039,77.1124928 39.4916366,77.4603254 C39.6834053,77.558048 39.9122202,77.558048 40.1159745,77.4943973 C40.5692459,77.3517447 40.7711841,76.8781084 41.0058102,76.5044411 C41.2288139,76.1667178 41.4532705,75.837606 41.8055728,75.6421608 C42.0216757,75.5144849 42.2755513,75.4635644 42.5225261,75.4635644 C42.9761608,75.4635644 43.4247106,75.4718015 43.8779821,75.5249686 C44.2306476,75.5695241 44.7144277,75.7391346 45.028231,75.4886502 C45.6235129,75.0172604 44.057402,73.9546675 43.7483203,73.7599711 C43.0295509,73.2971928 42.0155014,72.8145705 41.7870497,71.8695442 C41.5273629,70.7560308 42.0652595,69.6054501 42.5101774,68.6237311 C42.9881463,67.5910915 43.6375448,66.6352072 44.0083702,65.5479029 C44.3483238,64.5497095 44.6076474,63.5092072 44.7522003,62.4552259 C45.5352557,56.6888436 44.2433595,50.5648939 42.6053353,45.0549866 C42.4117507,44.3963887 42.1582383,43.7437814 41.972644,43.0859324 C41.6944341,42.0514207 42.6670791,41.802434 43.1653871,42.8182249 C43.643356,43.7909579 46.7752146,49.9852978 47.690111,54.6022227 C48.2646907,57.5357728 50.4115556,57.6503441 50.3501751,52.4354767 C50.2706347,44.8853761 47.4972527,39.4222709 44.1140609,33.8595709" id="Shape" fill="#000000"></path>
                        <path d="M41.5346269,56.6098418 C41.9116267,60.4165303 42.3191351,66.984163 37.8151135,67.1987034 C36.6220072,67.2601077 35.1430639,66.3978274 32.9344552,66.5569542 C29.1782588,66.8145525 28.0643297,68.2946193 24.9956676,67.733744 C23.2454152,67.4053811 21.9451654,66.3873437 21.2096889,64.6309578 C20.3739697,62.6428084 20.2937029,60.3783398 20.1640411,58.2419216 C20.0216674,55.8497771 20.0216674,53.4456514 20.1640411,51.0456442 C20.262831,49.3169651 20.442251,47.5953998 20.6645283,45.8749579 C21.030269,43.0222816 21.6175606,40.2062982 22.2491623,37.406789 C22.8055821,34.9304009 23.3812513,32.4618756 24.4145504,30.1431167 C25.16855,28.4496327 26.3020918,26.8269134 27.965903,25.9623866 C29.7851631,25.0274696 32.3409893,24.9559561 34.1337359,25.8983614 C38.1884813,28.0396471 38.0813378,33.0313625 38.2131788,37.0885353 C38.3123319,40.2066726 38.6871525,43.4161674 39.2330395,46.4830096 C39.838491,49.8969356 41.1797822,53.1506115 41.5346269,56.6098418" id="Shape" fill="#FFFFFF"></path>
                        <path d="M34.9759927,14.7943032 C35.8040847,15.8007337 35.7550529,19.9282968 34.4010498,21.3705476 C33.6016504,22.2092396 32.2581801,22.3174459 31.1950987,22.4683356 C30.0136148,22.6473065 28.8749882,22.9142651 27.7182018,23.2078074 C26.6169846,23.4859985 26.6914403,22.2811275 27.755248,21.4255867 C29.3387924,20.1424628 33.3176294,19.5711038 34.269572,14.7943032 C34.3062551,14.6157068 34.5041981,14.2225699 34.9759927,14.7943032" id="Shape" fill="#FFFFFF"></path>
                        <path d="M29.2087674,15.8812332 C30.3165221,16.620705 31.9080569,16.138457 32.7488609,14.802166 C33.5893017,13.4647517 33.3731987,11.7716421 32.2581801,11.0302982 C31.1457038,10.2825893 29.5621594,10.7633395 28.7202658,12.1007538 C27.872561,13.4392914 28.0955648,15.1316521 29.2087674,15.8812332" id="Shape" fill="#FFFFFF"></path>
                        <path d="M30.2486041,13.2685576 C30.6699141,12.644406 31.3992162,12.4133913 31.8877178,12.7597262 C32.3783987,13.0989472 32.432152,13.885221 32.0195588,14.5179842 C31.6033336,15.1406381 30.8678571,15.3716529 30.3782658,15.034304 C29.8959386,14.686097 29.8345581,13.9020697 30.2486041,13.2685576" id="Shape" fill="#000000"></path>
                    </g>
                </g>
            </g>
        </g>
    </g>
</svg>

<svg width="61" height="88" viewBox="0 0 61 88" xmlns="http://www.w3.org/2000/svg">
    <title>Penguin logo</title>
    <g fill="none" fill-rule="evenodd">
        <path d="M30.143.004C1.243.066.023 37.23.03 44.06c.043 20.707 8.223 43.596 30.274 43.545 22.052-.047 30.137-23.105 30.1-43.813-.012-6.82-1.354-43.84-30.26-43.788" fill="#000"/>
        <path d="M30.304 86.364c-20.95.045-26.6-22.92-26.636-42.59-.012-6.49-1.07-42.683 26.39-42.744C57.51.975 56.76 37.364 56.767 43.853c.036 19.665-5.512 42.466-26.464 42.51" fill="#F60"/>
        <path d="M44.114 33.86c-2.462-4.038-5.91-8.807-6.3-13.718-.24-3.083-.06-6.533-2.078-9.073-.58-.742-1.41-1.43-2.233-1.874-.874-.463-2.005-.768-2.995-.768-.94 0-1.874.15-2.77.427-1.06.332-2.11.723-3.206.884-1.274.177-2.3.114-3.545-.17-.737-.17-.94-.232-1.683-.4-.402-.09-1.522-.42-1.87-.064-.835.865.94 1.908 1.468 2.3 1.157.865 1.645 1.15 2.746 2.14 1.492 1.338 2.68 2.922 3.137 4.92.13.58.174 1.16.18 1.747.11 8.61-13.823 17.055-13.63 32.297.068 5.384 2.858 6.277 2.82 3.28-.042-3.548 1.182-7.382 2.445-10.67.297-.758 1.232-.99 1.02.33-.333 2.085-1.156 5.696-1.082 11.588.02 1.417.1 2.853.298 4.25.16 1.144.395 2.265.723 3.363.265.918.612 1.82 1.05 2.667.348.667.75 1.308 1.22 1.888.47.57.97.99 1.534 1.444.328.266.693.507.848.927.235.625-.533.873-.934 1.06-.447.206-.836.436-1.256.64-.607.305-1.2.626-1.79.964-.357.215-.76.34-1.106.58-.347.24-.52.616.012.706.247.044.513-.028.76-.037.422-.017.867-.08 1.276.08.544.22.513.765.537 1.292.026.56.41.75.893.607.57-.163.965-.608 1.405-.99.315-.277.66-.562 1.038-.76.75-.383 1.647-.256 2.457-.214.445.028 1.083.224 1.448-.16.372-.375.106-1.042-.055-1.462-.16-.4-.352-.792-.544-1.185-.086-.18-.21-.33-.29-.518-.316-.75 2.22-1.32 2.592-1.417 1.225-.338 2.512-.64 3.787-.758 1.2-.108 2.53-.108 3.667.385.482.204.886.56 1.213.98.18.24.6.944.223 1.23-.583.436-1.18.818-1.757 1.282-.36.287-.705.59-1.01.947-.227.27-.29.732.175.704.62-.028 1.23-.06 1.845-.07.44 0 .91.06 1.28.32.607.428.743 1.328 1.417 1.676.19.098.42.098.624.034.453-.142.655-.616.89-.99.223-.337.447-.666.8-.862.216-.128.47-.178.717-.178.453 0 .902.008 1.355.06.353.046.836.215 1.15-.035.596-.473-.97-1.535-1.28-1.73-.718-.463-1.732-.945-1.96-1.89-.26-1.114.277-2.265.722-3.246.478-1.033 1.128-1.99 1.498-3.076.34-.998.6-2.04.744-3.093.783-5.766-.51-11.89-2.147-17.4-.193-.66-.447-1.31-.632-1.97-.28-1.034.694-1.283 1.192-.267.478.973 3.61 7.167 4.525 11.784.575 2.934 2.722 3.048 2.66-2.167-.08-7.55-2.853-13.013-6.236-18.575" fill="#000"/>
        <path d="M41.535 56.61c.377 3.807.784 10.374-3.72 10.59-1.193.06-2.672-.802-4.88-.643-3.757.258-4.87 1.738-7.94 1.177-1.75-.33-3.05-1.347-3.785-3.103-.836-1.987-.916-4.252-1.046-6.388-.142-2.392-.142-4.796 0-7.196.1-1.73.278-3.45.5-5.17.366-2.854.954-5.67 1.585-8.47.556-2.476 1.13-4.944 2.165-7.263.754-1.693 1.887-3.316 3.55-4.18 1.82-.936 4.376-1.007 6.17-.065 4.053 2.142 3.946 7.133 4.078 11.19.1 3.12.474 6.328 1.02 9.395.605 3.414 1.947 6.668 2.302 10.127M34.976 14.794c.828 1.007.78 5.134-.575 6.577-.798.84-2.142.947-3.205 1.098-1.18.18-2.32.446-3.477.74-1.1.278-1.027-.927.037-1.782 1.584-1.284 5.563-1.855 6.515-6.632.036-.178.234-.57.706 0M29.21 15.88c1.107.74 2.698.258 3.54-1.078.84-1.337.623-3.03-.492-3.772-1.112-.747-2.696-.267-3.538 1.07-.847 1.34-.624 3.032.49 3.78" fill="#FFF"/>
        <path d="M30.25 13.27c.42-.626 1.15-.857 1.638-.51.49.34.544 1.125.132 1.758-.417.623-1.152.854-1.642.516-.482-.348-.543-1.132-.13-1.765" fill="#000"/>
    </g>
</svg>
